X: 1433
T: Forget Your Cares and Woes
B: australian traditional tunes wiki
M:2/4
L:1/16
R: Set Tune
Q: 1/4=100
K:D
V:1 
DE|"D"F2A2 "A7"F3E|"D"D6FA|d2dd d2c2|"G"B6Bc|d2dd d3A|"A7"c2B2 "G"B2BB|"D"A2A2 G2F2|"A7"E6DE|
"D"F2A2 "A7"F3E|"D"D6FA|d2dd d2c2|"G"B6Bc|d2dd d3A|"A7"c2B2 "G"B2BB|"D"A2A2 "A7"G2E2|"D"D8||
% abcbook-tune_id 6342d53ac5e11d6c8be64f92


% abcbook-boost 0
% abcbook-tablature 
% abcbook-transpose 
% abcbook-lastupdated 1665324364864
% abcbook-soundfonts 
% abcbook-repeats 1
% NFF Book 2015

